X:1
T:Hold On
C:Trad., adapted DH
M:C
Q:148
L:1/8
K:F#phr
T:F#Phrygian
"F#m"F2 AA cc c2|"Bm"B2 A2 "F#m"c4|FF A2 c2 cc|"Bm"B2 A "F#m"F-F4|
"F#m"F2 AA cc c2|"Bm"B2 A "F#m"c-c4|FF A2 c2 cc|"Bm"B2 A2 "F#m"F4||
"F#m"F2 f2 "C"d4|"F#m"c2 B2 "F#m/A"A2 FF|"Bm"B2 A2 "F#m"F2 A2|f6 f2|
"C"d6 z2|"F#m"F2 f2 "C"d4|"F#m"c2 B2 "F#m/A"A2 FF|"Bm"B2 A2 "F#m"F2 z2 |]
